assets/Prohibited/Flat/prohibited_flat.svg

<svg width="32" height="32" viewBox="0 0 32 32" fill="none" xmlns="http://www.w3.org/2000/svg">
<path d="M27.875 15.9375C27.875 22.5304 22.5304 27.875 15.9375 27.875C9.3446 27.875 4 22.5304 4 15.9375C4 9.3446 9.3446 4 15.9375 4C22.5304 4 27.875 9.3446 27.875 15.9375Z" fill="white"/>
<path d="M15.95 2C8.26 2 2 8.26 2 15.95C2 23.64 8.26 29.9 15.95 29.9C23.64 29.9 29.9 23.65 29.9 15.95C29.9 8.25 23.65 2 15.95 2ZM26.89 15.95C26.89 18.3174 26.1275 20.5103 24.8402 22.2997C24.7518 22.4227 24.5746 22.4346 24.4674 22.3276L9.57271 7.44258C9.46551 7.33544 9.4774 7.15815 9.60043 7.06965C11.3898 5.78246 13.5826 5.02 15.95 5.02C21.98 5.01 26.89 9.92 26.89 15.95ZM5.01 15.95C5.01 13.573 5.78167 11.3797 7.06967 9.59033C7.15819 9.46735 7.33543 9.45543 7.44258 9.56258L22.3369 24.4569C22.4442 24.5642 22.432 24.7418 22.3086 24.8302C20.5104 26.1183 18.3175 26.89 15.95 26.89C9.92 26.89 5.01 21.98 5.01 15.95Z" fill="#F8312F"/>
</svg>

<svg xmlns="http://www.w3.org/2000/svg" width="32" height="32" fill="none"><path fill="#fff" d="M27.875 15.938c0 6.592-5.345 11.937-11.938 11.937C9.346 27.875 4 22.53 4 15.937 4 9.346 9.345 4 15.938 4c6.592 0 11.937 5.345 11.937 11.938Z"/><path fill="#F8312F" d="M15.95 2C8.26 2 2 8.26 2 15.95 2 23.64 8.26 29.9 15.95 29.9c7.69 0 13.95-6.25 13.95-13.95C29.9 8.25 23.65 2 15.95 2Zm10.94 13.95c0 2.367-.762 4.56-2.05 6.35a.245.245 0 0 1-.373.028L9.573 7.443A.245.245 0 0 1 9.6 7.07a10.84 10.84 0 0 1 6.35-2.05c6.03-.01 10.94 4.9 10.94 10.93Zm-21.88 0c0-2.377.772-4.57 2.06-6.36a.245.245 0 0 1 .373-.027l14.894 14.894a.245.245 0 0 1-.028.373 10.89 10.89 0 0 1-6.359 2.06c-6.03 0-10.94-4.91-10.94-10.94Z"/></svg>
